!!!OTL: ALS DIE PREUSSEN MARSCHIERTEN VOR PRAG
!!!ARE: Europa, Mitteleuropa, Deutschland
!!!SCT: F0584
!!!YEM: Copyright 1995, estate of Helmut Schaffrath.
**kern
*ICvox
*Ivox
*M4/4
*k[f#]
*G:
{8g
8b
=1
4dd
8b
8g
8dd
8cc
8a
8f#
=2
2g
8r}
{8d
8f#
8g
=3
4a
4b
4cc
4b
=4
2a
4r}
{8g
8b
=5
8dd
8cc
8b
8a
4g
8fn
8fn
=6
4e
4g
4cc
8r}
{8cc
=7
8ee
8dd
8cc
8b
4a
4g
=8
4f#
4a
4dd
8r}
{8d
=9
4g
4b
4a
4cc
=10
4b
8cc
8ee
4dd
8r}
{8dd
=11
8gg
8dd
8ee
8cc
4dd
8.cc
16b
=12
2b
4r}
==
!!!AGN: Soldaten -, Kriegs -, erzaehlendes Volks - Lied
!!!ONB: ESAC (Essen Associative Code) Database: FINK
!!!AMT: simple quadruple
!!!AIN: vox
!!!EED: Helmut Schaffrath
!!!EEV: 1.0
*-
